Origami/32x32/apps/xmoto.svg

<svg width="32" height="32" version="1.1" viewBox="0 0 32 32" xmlns="http://www.w3.org/2000/svg">
 <path d="M 17.182294,3 C 8.5858211,3 3.9897621,9.1468464 3.159297,15.854382 c -0.5717912,4.618267 0.4772618,8.941327 1.8482429,11.823924 2.0073992,3.688136 2.5392651,3.900322 5.6894301,2.586783 6.401453,-2.671182 12.775017,-5.754291 17.640865,-8.329263 1.86449,-0.986675 1.752737,-4.960837 1.56244,-7.269465 C 29.425723,8.9092426 25.778766,3 17.182294,3 Z" style="opacity:.2"/>
 <path d="M 17.182294,2 C 8.5858211,2 3.9897621,8.1468464 3.159297,14.854382 c -0.5717912,4.618267 0.4772618,8.941327 1.8482429,11.823924 2.0073992,3.688136 2.5392651,3.900322 5.6894301,2.586783 6.401453,-2.671182 12.775017,-5.754291 17.640865,-8.329263 1.86449,-0.986675 1.752737,-4.960837 1.56244,-7.269465 C 29.425723,7.9092426 25.778766,2 17.182294,2 Z" style="fill:#f4b932"/>
 <path d="m17.181641 2c-8.5964733 0-13.19102 6.14598-14.021485 12.853516-0.1443246 1.165687-0.1858461 2.312219-0.1445312 3.421875 0.0065529-0.795401 0.0429499-1.601419 0.1445312-2.421875 0.8304651-6.707536 5.4250115-12.853516 14.021485-12.853516 8.596472 0 12.244198 5.9088972 12.71875 11.666016 0.041634 0.50509 0.071696 1.1088 0.085937 1.724609 0.026305-0.97804-0.021819-1.94675-0.085937-2.724609-0.474552-5.7571188-4.122278-11.666016-12.71875-11.666016z" style="fill:#ffffff;opacity:.2"/>
 <path d="m14.600265 10.600608c-0.179123 0.0054-0.355438 0.04719-0.518813 0.122896-2.109684 0.831174-3.242953 1.874491-5.6683279 2.180841-1.4201537 0.179379-3.4575607 0.215353-4.8752752 0.04286-0.8147079-0.110478-1.5378663 0.541489-1.5378489 1.38645v5.868333c2.342e-4 0.788515 0.6340979 1.42091 1.4006195 1.397377 2.1990243-0.166545 4.4669309-0.437918 6.5246695-1.153197 0 0 6.074711-2.006057 6.074711-8.447272 2.5e-4 -0.788503-0.633209-1.421306-1.399735-1.398287z" style="fill:#444444"/>
 <circle cx="14" cy="14" r="1" style="opacity:.2"/>
 <circle cx="14" cy="13" r="1" style="fill:#ffffff"/>
</svg>

<svg xmlns="http://www.w3.org/2000/svg" width="32" height="32" version="1.1" viewBox="0 0 32 32">
 <path style="opacity:0.2" d="M 17.182294,3 C 8.5858211,3 3.9897621,9.1468464 3.159297,15.854382 c -0.5717912,4.618267 0.4772618,8.941327 1.8482429,11.823924 2.0073992,3.688136 2.5392651,3.900322 5.6894301,2.586783 6.401453,-2.671182 12.775017,-5.754291 17.640865,-8.329263 1.86449,-0.986675 1.752737,-4.960837 1.56244,-7.269465 C 29.425723,8.9092426 25.778766,3 17.182294,3 Z"/>
 <path style="fill:#f4b932" d="M 17.182294,2 C 8.5858211,2 3.9897621,8.1468464 3.159297,14.854382 c -0.5717912,4.618267 0.4772618,8.941327 1.8482429,11.823924 2.0073992,3.688136 2.5392651,3.900322 5.6894301,2.586783 6.401453,-2.671182 12.775017,-5.754291 17.640865,-8.329263 1.86449,-0.986675 1.752737,-4.960837 1.56244,-7.269465 C 29.425723,7.9092426 25.778766,2 17.182294,2 Z"/>
 <path style="opacity:0.2;fill:#ffffff" d="M 17.181641 2 C 8.5851677 2 3.9906213 8.14598 3.1601562 14.853516 C 3.0158316 16.019203 2.9743101 17.165735 3.015625 18.275391 C 3.0221779 17.47999 3.0585749 16.673972 3.1601562 15.853516 C 3.9906213 9.14598 8.5851677 3 17.181641 3 C 25.778113 3 29.425839 8.9088972 29.900391 14.666016 C 29.942025 15.171106 29.972087 15.774816 29.986328 16.390625 C 30.012633 15.412585 29.964509 14.443875 29.900391 13.666016 C 29.425839 7.9088972 25.778113 2 17.181641 2 z"/>
 <path style="fill:#444444" d="m 14.600265,10.600608 c -0.179123,0.0054 -0.355438,0.04719 -0.518813,0.122896 -2.109684,0.831174 -3.242953,1.874491 -5.6683279,2.180841 -1.4201537,0.179379 -3.4575607,0.215353 -4.8752752,0.04286 C 2.723141,12.836727 1.9999826,13.488694 2,14.333655 v 5.868333 c 2.342e-4,0.788515 0.6340979,1.42091 1.4006195,1.397377 2.1990243,-0.166545 4.4669309,-0.437918 6.5246695,-1.153197 0,0 6.074711,-2.006057 6.074711,-8.447272 2.5e-4,-0.788503 -0.633209,-1.421306 -1.399735,-1.398287 z"/>
 <circle style="opacity:0.2" cx="14" cy="14" r="1"/>
 <circle style="fill:#ffffff" cx="14" cy="13" r="1"/>
</svg>
